usr/share/icons/biglinux-icons-material/22/actions/color-mode-black-white.svg

<!DOCTYPE svg>
<svg xmlns="http://www.w3.org/2000/svg" version="1.1" viewBox="0 0 22 22">
    <defs>
        <style id="current-color-scheme" type="text/css">
            .ColorScheme-Text {
                color:#363636;
            }
        </style>
    </defs>
    <path class="ColorScheme-Text" style="fill:currentColor; fill-opacity:1; stroke:none" d="M 7 3 C 6.02709 6.40503 3.64555 9.33228 2.5957 11.6758 C 2.2283 12.3726 2 13.1546 2 14 C 2 16.77 4.23 19 7 19 C 9.77 19 12 16.77 12 14 C 12 13.1546 11.7717 12.3726 11.4043 11.6758 C 10.3544 9.33228 7.9729 6.40503 7 3 Z M 9.2832 10.7168 C 10.3209 11.438 11 12.6351 11 14 C 11 16.216 9.216 18 7 18 C 5.63504 18 4.438 17.321 3.7168 16.2832 C 4.36385 16.7329 5.14892 17 6 17 C 8.216 17 10 15.216 10 13 C 10 12.1489 9.73291 11.3638 9.2832 10.7168 Z"/>
    <path class="ColorScheme-Text" style="fill:currentColor; fill-opacity:1; stroke:none" d="M 14 2 C 13.1857 4.85 11.394 7.36008 10.2129 9.47852 C 10.4199 9.82618 10.618 10.1732 10.8008 10.502 C 11.6085 8.88637 12.9325 6.7779 14 4.39258 C 15.1941 7.06063 16.7467 9.4199 17.4922 11.084 L 17.5039 11.1133 L 17.5195 11.1426 C 17.8227 11.7175 18 12.3346 18 13 C 18 15.2333 16.2333 17 14 17 C 13.0485 17 12.1933 16.6658 11.5117 16.125 C 11.3687 16.4293 11.1969 16.7138 10.998 16.9805 C 11.8351 17.6119 12.8661 18 14 18 C 16.77 18 19 15.77 19 13 C 19 12.1546 18.7717 11.3726 18.4043 10.6758 C 17.3544 8.33228 14.9729 5.40503 14 2 Z"/>
</svg>

<svg xmlns="http://www.w3.org/2000/svg" viewBox="0 0 22 22"><defs><style id="current-color-scheme" type="text/css">.ColorScheme-Text{color:#dedede}</style></defs><path d="M7 3c-.973 3.405-3.354 6.332-4.404 8.676A4.958 4.958 0 0 0 2 14c0 2.77 2.23 5 5 5s5-2.23 5-5c0-.845-.228-1.627-.596-2.324C10.354 9.332 7.973 6.405 7 3Zm2.283 7.717A3.984 3.984 0 0 1 11 14c0 2.216-1.784 4-4 4a3.984 3.984 0 0 1-3.283-1.717C4.364 16.733 5.149 17 6 17c2.216 0 4-1.784 4-4 0-.851-.267-1.636-.717-2.283Z" class="ColorScheme-Text" style="fill:currentColor;fill-opacity:1;stroke:none"/><path d="M14 2c-.814 2.85-2.606 5.36-3.787 7.479.207.347.405.694.588 1.023.807-1.616 2.131-3.724 3.199-6.11 1.194 2.669 2.747 5.028 3.492 6.692l.012.03.015.029A3.94 3.94 0 0 1 18 13c0 2.233-1.767 4-4 4a3.978 3.978 0 0 1-2.488-.875 4.946 4.946 0 0 1-.514.855A4.961 4.961 0 0 0 14 18c2.77 0 5-2.23 5-5 0-.845-.228-1.627-.596-2.324C17.354 8.332 14.973 5.405 14 2Z" class="ColorScheme-Text" style="fill:currentColor;fill-opacity:1;stroke:none"/></svg>
